symbolic/64x64/places/folder-red-games.svg

<svg xmlns="http://www.w3.org/2000/svg" width="64" height="64" version="1"><rect style="opacity:.2" width="56" height="36" x="4" y="22" rx="2.8" ry="2.8"/><path style="fill:#bf4b4b" d="M4 46.2C4 47.751 5.249 49 6.8 49h50.4c1.551 0 2.8-1.249 2.8-2.8V15.8c0-1.551-1.249-2.8-2.8-2.8H32c-4.2 0-5.6-6-9.8-6H6.8A2.794 2.794 0 0 0 4 9.8"/><rect style="opacity:.2" width="56" height="36" x="4" y="20" rx="2.8" ry="2.8"/><rect style="fill:#e4e4e4" width="48" height="22" x="8" y="16" rx="2.8" ry="2.8"/><rect style="fill:#e25252" width="56" height="36" x="4" y="21" rx="2.8" ry="2.8"/><path style="opacity:.1;fill:#fff" d="M6.8 7C5.25 7 4 8.25 4 9.8v1.001A2.795 2.795 0 0 1 6.8 8H22.2c4.2 0 5.601 6 9.801 6h25.199A2.796 2.796 0 0 1 60 16.801v-1A2.796 2.796 0 0 0 57.199 13H32c-4.2 0-5.601-6-9.801-6z"/><path style="fill:#4f1d1d" d="M26.73 31c-.302.001-.651.097-1.007.301-1.297.73-2.491 3.122-3.139 6.222-.553 2.634-.755 6.232-.426 7.68.287 1.245.782 1.797 1.664 1.797 1.308-.024 2.953-1.581 3.994-3.676.754-1.159 2.5-1.687 4.184-1.629 1.684-.063 3.43.47 4.184 1.629 1.041 2.095 2.686 3.652 3.994 3.676.882 0 1.377-.552 1.664-1.797.329-1.448.127-5.046-.426-7.68-.648-3.1-1.842-5.492-3.139-6.222-.356-.204-.683-.302-.984-.301a1.364 1.364 0 0 0-.836.301c-.659.503-2.033 1.041-4.457 1.043-2.424.002-3.798-.54-4.457-1.043-.26-.198-.51-.303-.813-.301zm.27 3h2v2h2v2h-2v2h-2v-2h-2v-2h2v-2zm9 0a1 1 0 1 1 0 2 1 1 0 0 1 0-2zm-2 2a1 1 0 1 1 0 2 1 1 0 0 1 0-2zm4 0a1 1 0 1 1 0 2 1 1 0 0 1 0-2zm-2 2a1 1 0 1 1 0 2 1 1 0 0 1 0-2z"/></svg>

<svg xmlns="http://www.w3.org/2000/svg" width="64" height="64" version="1">
 <rect style="opacity:0.2" width="56" height="36" x="4" y="22" rx="2.8" ry="2.8"/>
 <path style="fill:#bf4b4b" d="M 4,46.2 C 4,47.751 5.2488,49 6.8,49 H 57.2 C 58.751,49 60,47.751 60,46.2 V 15.8 C 60,14.249 58.751,13 57.2,13 H 32 C 27.8,13 26.4,7 22.2,7 H 6.8 C 5.2488,7 4,8.2488 4,9.8"/>
 <rect style="opacity:0.2" width="56" height="36" x="4" y="20" rx="2.8" ry="2.8"/>
 <rect style="fill:#e4e4e4" width="48" height="22" x="8" y="16" rx="2.8" ry="2.8"/>
 <rect style="fill:#e25252" width="56" height="36" x="4" y="21" rx="2.8" ry="2.8"/>
 <path style="opacity:0.1;fill:#ffffff" d="M 6.8008,7 C 5.2496,7 4,8.2496 4,9.8008 V 10.801 C 4,9.2496 5.2496,8 6.8008,8 H 22.199 C 26.399,8 27.8,14 32,14 H 57.199 C 58.75,14 60,15.25 60,16.801 V 15.801 C 60,14.25 58.75,13 57.199,13 H 32 C 27.8,13 26.399,7 22.199,7 Z"/>
 <path style="fill:#4f1d1d" d="M 26.73 31 C 26.428 31.001 26.079 31.097 25.723 31.301 C 24.426 32.031 23.232 34.423 22.584 37.523 C 22.031 40.157 21.829 43.755 22.158 45.203 C 22.445 46.448 22.94 47 23.822 47 C 25.13 46.976 26.775 45.419 27.816 43.324 C 28.57 42.165 30.316 41.637 32 41.695 C 33.684 41.632 35.43 42.165 36.184 43.324 C 37.225 45.419 38.87 46.976 40.178 47 C 41.06 47 41.555 46.448 41.842 45.203 C 42.171 43.755 41.969 40.157 41.416 37.523 C 40.768 34.423 39.574 32.031 38.277 31.301 C 37.921 31.097 37.594 30.999 37.293 31 C 36.992 31.002 36.717 31.103 36.457 31.301 C 35.798 31.804 34.424 32.342 32 32.344 C 29.576 32.346 28.202 31.804 27.543 31.301 C 27.283 31.103 27.033 30.998 26.73 31 z M 27 34 L 29 34 L 29 36 L 31 36 L 31 38 L 29 38 L 29 40 L 27 40 L 27 38 L 25 38 L 25 36 L 27 36 L 27 34 z M 36 34 C 36.552 34 37 34.448 37 35 C 37 35.552 36.552 36 36 36 C 35.448 36 35 35.552 35 35 C 35 34.448 35.448 34 36 34 z M 34 36 C 34.552 36 35 36.448 35 37 C 35 37.552 34.552 38 34 38 C 33.448 38 33 37.552 33 37 C 33 36.448 33.448 36 34 36 z M 38 36 C 38.552 36 39 36.448 39 37 C 39 37.552 38.552 38 38 38 C 37.448 38 37 37.552 37 37 C 37 36.448 37.448 36 38 36 z M 36 38 C 36.552 38 37 38.448 37 39 C 37 39.552 36.552 40 36 40 C 35.448 40 35 39.552 35 39 C 35 38.448 35.448 38 36 38 z"/>
</svg>
